src/assets/svg/auth-verify.svg

<svg width="115" height="115" viewBox="0 0 115 115" fill="none" xmlns="http://www.w3.org/2000/svg">
<g filter="url(#filter0_d_287_1647)">
<circle cx="57.2452" cy="53.2452" r="49.2452" fill="#00C700"/>
<circle cx="57.2452" cy="53.2452" r="48.3764" stroke="white" stroke-width="1.7377"/>
</g>
<path d="M68.2363 54.0186C68.8155 54.0186 69.3777 54.0867 69.9398 54.1719V48.9082C69.9398 48.0046 69.5809 47.1381 68.9419 46.4992C68.303 45.8603 67.4365 45.5013 66.5329 45.5013H64.8294V42.0944C64.8294 37.3929 61.0137 33.5771 56.3122 33.5771C51.6107 33.5771 47.7949 37.3929 47.7949 42.0944V45.5013H46.0915C45.1879 45.5013 44.3213 45.8603 43.6824 46.4992C43.0435 47.1381 42.6846 48.0046 42.6846 48.9082V65.9427C42.6846 67.8336 44.2006 69.3496 46.0915 69.3496H59.3954C58.5267 67.8506 58.0156 66.1131 58.0156 64.2393C58.0156 58.6009 62.5979 54.0186 68.2363 54.0186ZM51.2018 42.0944C51.2018 39.2667 53.4845 36.9841 56.3122 36.9841C59.1399 36.9841 61.4225 39.2667 61.4225 42.0944V45.5013H51.2018V42.0944ZM56.3122 60.8324C55.6384 60.8324 54.9797 60.6326 54.4194 60.2582C53.8591 59.8839 53.4225 59.3518 53.1646 58.7292C52.9068 58.1067 52.8393 57.4217 52.9707 56.7608C53.1022 56.0999 53.4267 55.4929 53.9031 55.0164C54.3796 54.54 54.9867 54.2155 55.6475 54.084C56.3084 53.9526 56.9934 54.02 57.6159 54.2779C58.2385 54.5358 58.7706 54.9724 59.1449 55.5327C59.5193 56.093 59.7191 56.7516 59.7191 57.4255C59.7191 59.3163 58.203 60.8324 56.3122 60.8324ZM74.1984 61.2582L66.107 69.3496L61.4225 64.2393L63.3985 62.2633L66.107 64.9718L72.2224 58.8564L74.1984 61.2582Z" fill="white"/>
<defs>
<filter id="filter0_d_287_1647" x="0" y="0" width="114.49" height="114.49" filterUnits="userSpaceOnUse" color-interpolation-filters="sRGB">
<feFlood flood-opacity="0" result="BackgroundImageFix"/>
<feColorMatrix in="SourceAlpha" type="matrix" values="0 0 0 0 0 0 0 0 0 0 0 0 0 0 0 0 0 0 127 0" result="hardAlpha"/>
<feOffset dy="4"/>
<feGaussianBlur stdDeviation="4"/>
<feComposite in2="hardAlpha" operator="out"/>
<feColorMatrix type="matrix" values="0 0 0 0 0.658333 0 0 0 0 0.658333 0 0 0 0 0.658333 0 0 0 0.25 0"/>
<feBlend mode="normal" in2="BackgroundImageFix" result="effect1_dropShadow_287_1647"/>
<feBlend mode="normal" in="SourceGraphic" in2="effect1_dropShadow_287_1647" result="shape"/>
</filter>
</defs>
</svg>

<svg xmlns="http://www.w3.org/2000/svg" width="115" height="115" fill="none"><g filter="url(#a)"><circle cx="57.245" cy="53.245" r="49.245" fill="#00C700"/><circle cx="57.245" cy="53.245" r="48.376" stroke="#fff" stroke-width="1.738"/></g><path fill="#fff" d="M68.236 54.019c.58 0 1.142.068 1.704.153v-5.264a3.406 3.406 0 0 0-3.407-3.407h-1.704v-3.407a8.52 8.52 0 0 0-8.517-8.517 8.52 8.52 0 0 0-8.517 8.517v3.407h-1.703a3.407 3.407 0 0 0-3.407 3.407v17.035a3.395 3.395 0 0 0 3.407 3.407h13.303a10.15 10.15 0 0 1-1.38-5.11c0-5.64 4.583-10.221 10.221-10.221M51.202 42.094a5.104 5.104 0 0 1 5.11-5.11 5.103 5.103 0 0 1 5.11 5.11v3.407h-10.22zm5.11 18.738a3.407 3.407 0 1 1 3.407-3.407 3.395 3.395 0 0 1-3.407 3.407m17.886.426-8.091 8.092-4.684-5.11 1.975-1.977 2.709 2.709 6.115-6.116z"/><defs><filter id="a" width="114.49" height="114.49" x="0" y="0" color-interpolation-filters="sRGB" filterUnits="userSpaceOnUse"><feFlood flood-opacity="0" result="BackgroundImageFix"/><feColorMatrix in="SourceAlpha" result="hardAlpha" values="0 0 0 0 0 0 0 0 0 0 0 0 0 0 0 0 0 0 127 0"/><feOffset dy="4"/><feGaussianBlur stdDeviation="4"/><feComposite in2="hardAlpha" operator="out"/><feColorMatrix values="0 0 0 0 0.658333 0 0 0 0 0.658333 0 0 0 0 0.658333 0 0 0 0.25 0"/><feBlend in2="BackgroundImageFix" result="effect1_dropShadow_287_1647"/><feBlend in="SourceGraphic" in2="effect1_dropShadow_287_1647" result="shape"/></filter></defs></svg>
